src/images/rainbow-ai-logo.svg

<svg width="107" height="107" viewBox="0 0 107 107" fill="none" xmlns="http://www.w3.org/2000/svg">
<g clip-path="url(#clip0_168_306)">
<mask id="mask0_168_306" style="mask-type:luminance" maskUnits="userSpaceOnUse" x="0" y="0" width="107" height="107">
<path d="M107 0H0V107H107V0Z" fill="white"/>
</mask>
<g mask="url(#mask0_168_306)">
<g filter="url(#filter0_dd_168_306)">
<path d="M26.6476 76.828C26.6476 76.8035 26.6264 76.7844 26.602 76.7868C26.0507 76.8415 25.4916 76.8694 24.926 76.8694C15.6557 76.8694 8.14062 69.3544 8.14062 60.0841C8.14062 52.0879 13.7318 45.3977 21.2179 43.7096C21.3604 43.6775 21.4316 43.6614 21.4771 43.6139C21.5226 43.5665 21.5353 43.4951 21.5608 43.3522C24.2782 28.1519 37.5653 16.6143 53.5472 16.6143C69.5291 16.6143 82.8161 28.1519 85.5336 43.3522C85.5591 43.495 85.5719 43.5665 85.6173 43.6139C85.6627 43.6614 85.7339 43.6775 85.8765 43.7096C93.3626 45.3977 98.9538 52.0879 98.9538 60.0841C98.9538 69.3544 91.4387 76.8694 82.1684 76.8694C81.6027 76.8694 81.0436 76.8415 80.4924 76.7868C80.468 76.7844 80.4468 76.8035 80.4468 76.828C80.4468 76.8509 80.4282 76.8694 80.4055 76.8694H70.5128C70.5073 76.8694 70.5045 76.8694 70.5019 76.8695C70.4655 76.8704 70.4303 76.8802 70.3987 76.8983C70.3964 76.8997 70.394 76.9011 70.3892 76.9041C70.3848 76.9068 70.3826 76.9081 70.3803 76.9094C70.3489 76.9275 70.3132 76.9374 70.277 76.9383C70.2743 76.9383 70.2717 76.9383 70.2664 76.9383H36.8279C36.8227 76.9383 36.82 76.9383 36.8174 76.9383C36.7812 76.9374 36.7455 76.9275 36.7141 76.9094C36.7118 76.9081 36.7097 76.9068 36.7053 76.9041C36.7004 76.9011 36.698 76.8997 36.6957 76.8983C36.6641 76.8802 36.6289 76.8704 36.5925 76.8695C36.5898 76.8694 36.5871 76.8694 36.5816 76.8694H26.689C26.6661 76.8694 26.6476 76.8509 26.6476 76.828Z" fill="url(#paint0_linear_168_306)"/>
</g>
<g filter="url(#filter1_d_168_306)">
<path d="M63.8863 46.0741C67.1485 46.0741 69.7931 43.4295 69.7931 40.1673C69.7931 36.9051 67.1485 34.2605 63.8863 34.2605C60.6241 34.2605 57.9795 36.9051 57.9795 40.1673C57.9795 43.4295 60.6241 46.0741 63.8863 46.0741Z" fill="url(#paint1_linear_168_306)"/>
</g>
<g filter="url(#filter2_d_168_306)">
<path d="M41.981 46.0741C45.2432 46.0741 47.8878 43.4295 47.8878 40.1673C47.8878 36.9051 45.2432 34.2605 41.981 34.2605C38.7188 34.2605 36.0742 36.9051 36.0742 40.1673C36.0742 43.4295 38.7188 46.0741 41.981 46.0741Z" fill="url(#paint2_linear_168_306)"/>
</g>
<path d="M44.9206 43.311C45.3859 43.311 45.7631 42.9338 45.7631 42.4685C45.7631 42.0032 45.3859 41.626 44.9206 41.626C44.4553 41.626 44.0781 42.0032 44.0781 42.4685C44.0781 42.9338 44.4553 43.311 44.9206 43.311Z" fill="white"/>
<path d="M67.2468 43.311C67.7121 43.311 68.0893 42.9338 68.0893 42.4685C68.0893 42.0032 67.7121 41.626 67.2468 41.626C66.7815 41.626 66.4043 42.0032 66.4043 42.4685C66.4043 42.9338 66.7815 43.311 67.2468 43.311Z" fill="white"/>
<path d="M40.4973 42.4687C42.2422 42.4687 43.6567 41.0542 43.6567 39.3093C43.6567 37.5644 42.2422 36.1499 40.4973 36.1499C38.7524 36.1499 37.3379 37.5644 37.3379 39.3093C37.3379 41.0542 38.7524 42.4687 40.4973 42.4687Z" fill="white"/>
<path d="M62.8234 42.4687C64.5683 42.4687 65.9828 41.0542 65.9828 39.3093C65.9828 37.5644 64.5683 36.1499 62.8234 36.1499C61.0786 36.1499 59.6641 37.5644 59.6641 39.3093C59.6641 41.0542 61.0786 42.4687 62.8234 42.4687Z" fill="white"/>
<path d="M27.9385 53.9623C27.9385 53.5401 28.2808 53.1978 28.7029 53.1978H78.3909C78.8131 53.1978 79.1553 53.5401 79.1553 53.9623V71.1385C79.1553 76.2053 75.0479 80.3126 69.9813 80.3126H37.1125C32.0459 80.3126 27.9385 76.2053 27.9385 71.1385V53.9623Z" fill="#0F2D4A"/>
<g filter="url(#filter3_d_168_306)">
<path d="M79.2053 53.1978H70.6543V106.997H79.2052L79.2053 53.1978Z" fill="url(#paint3_linear_168_306)"/>
<path d="M62.1033 53.1978L70.6543 53.1978L70.6543 106.997L62.1033 106.997L62.1033 53.1978Z" fill="url(#paint4_linear_168_306)"/>
<path d="M53.5526 53.1978L62.1035 53.1978L62.1035 106.997L53.5525 106.997L53.5526 53.1978Z" fill="url(#paint5_linear_168_306)"/>
<path d="M45.0018 53.1978L53.5527 53.1978L53.5527 106.997L45.0018 106.997L45.0018 53.1978Z" fill="url(#paint6_linear_168_306)"/>
<path d="M36.45 53.1978L45.001 53.1978L45.001 106.997L36.45 106.997L36.45 53.1978Z" fill="url(#paint7_linear_168_306)"/>
<path d="M36.4503 53.1978H27.8994V106.997H36.4503V53.1978Z" fill="url(#paint8_linear_168_306)"/>
</g>
<path d="M79.2051 53.1865H27.8994V61.3369H79.2051V53.1865Z" fill="url(#paint9_linear_168_306)"/>
</g>
</g>
<defs>
<filter id="filter0_dd_168_306" x="-47.0686" y="-4.61824" width="201.232" height="170.742" filterUnits="userSpaceOnUse" color-interpolation-filters="sRGB">
<feFlood flood-opacity="0" result="BackgroundImageFix"/>
<feColorMatrix in="SourceAlpha" type="matrix" values="0 0 0 0 0 0 0 0 0 0 0 0 0 0 0 0 0 0 127 0" result="hardAlpha"/>
<feOffset dy="33.9767"/>
<feGaussianBlur stdDeviation="27.6046"/>
<feComposite in2="hardAlpha" operator="out"/>
<feColorMatrix type="matrix" values="0 0 0 0 1 0 0 0 0 1 0 0 0 0 1 0 0 0 0.7 0"/>
<feBlend mode="normal" in2="BackgroundImageFix" result="effect1_dropShadow_168_306"/>
<feColorMatrix in="SourceAlpha" type="matrix" values="0 0 0 0 0 0 0 0 0 0 0 0 0 0 0 0 0 0 127 0" result="hardAlpha"/>
<feOffset dx="4.72884" dy="8.65377"/>
<feGaussianBlur stdDeviation="5.91104"/>
<feComposite in2="hardAlpha" operator="out"/>
<feColorMatrix type="matrix" values="0 0 0 0 1 0 0 0 0 1 0 0 0 0 1 0 0 0 1 0"/>
<feBlend mode="normal" in2="effect1_dropShadow_168_306" result="effect2_dropShadow_168_306"/>
<feBlend mode="normal" in="SourceGraphic" in2="effect2_dropShadow_168_306" result="shape"/>
</filter>
<filter id="filter1_d_168_306" x="57.9795" y="34.2605" width="11.8135" height="13.6541" filterUnits="userSpaceOnUse" color-interpolation-filters="sRGB">
<feFlood flood-opacity="0" result="BackgroundImageFix"/>
<feColorMatrix in="SourceAlpha" type="matrix" values="0 0 0 0 0 0 0 0 0 0 0 0 0 0 0 0 0 0 127 0" result="hardAlpha"/>
<feOffset dy="1.8406"/>
<feComposite in2="hardAlpha" operator="out"/>
<feColorMatrix type="matrix" values="0 0 0 0 1 0 0 0 0 1 0 0 0 0 1 0 0 0 1 0"/>
<feBlend mode="normal" in2="BackgroundImageFix" result="effect1_dropShadow_168_306"/>
<feBlend mode="normal" in="SourceGraphic" in2="effect1_dropShadow_168_306" result="shape"/>
</filter>
<filter id="filter2_d_168_306" x="36.0742" y="34.2605" width="11.8135" height="13.6541" filterUnits="userSpaceOnUse" color-interpolation-filters="sRGB">
<feFlood flood-opacity="0" result="BackgroundImageFix"/>
<feColorMatrix in="SourceAlpha" type="matrix" values="0 0 0 0 0 0 0 0 0 0 0 0 0 0 0 0 0 0 127 0" result="hardAlpha"/>
<feOffset dy="1.8406"/>
<feComposite in2="hardAlpha" operator="out"/>
<feColorMatrix type="matrix" values="0 0 0 0 1 0 0 0 0 1 0 0 0 0 1 0 0 0 1 0"/>
<feBlend mode="normal" in2="BackgroundImageFix" result="effect1_dropShadow_168_306"/>
<feBlend mode="normal" in="SourceGraphic" in2="effect1_dropShadow_168_306" result="shape"/>
</filter>
<filter id="filter3_d_168_306" x="-0.473585" y="48.4808" width="108.052" height="110.545" filterUnits="userSpaceOnUse" color-interpolation-filters="sRGB">
<feFlood flood-opacity="0" result="BackgroundImageFix"/>
<feColorMatrix in="SourceAlpha" type="matrix" values="0 0 0 0 0 0 0 0 0 0 0 0 0 0 0 0 0 0 127 0" result="hardAlpha"/>
<feOffset dy="23.656"/>
<feGaussianBlur stdDeviation="14.1865"/>
<feColorMatrix type="matrix" values="0 0 0 0 0 0 0 0 0 0.122 0 0 0 0 0.254167 0 0 0 0.4 0"/>
<feBlend mode="normal" in2="BackgroundImageFix" result="effect1_dropShadow_168_306"/>
<feBlend mode="normal" in="SourceGraphic" in2="effect1_dropShadow_168_306" result="shape"/>
</filter>
<linearGradient id="paint0_linear_168_306" x1="47.0605" y1="13.5981" x2="46.4285" y2="76.8922" gradientUnits="userSpaceOnUse">
<stop stop-color="#E7F2FF"/>
<stop offset="0.171875" stop-color="white"/>
<stop offset="0.433304" stop-color="#E7F2FF"/>
<stop offset="0.890238" stop-color="#80B5EF"/>
<stop offset="0.99097" stop-color="#9DDCFF"/>
</linearGradient>
<linearGradient id="paint1_linear_168_306" x1="63.8863" y1="34.2605" x2="63.8863" y2="46.0741" gradientUnits="userSpaceOnUse">
<stop stop-color="#3E6A95"/>
<stop offset="1" stop-color="#0F2D4A"/>
</linearGradient>
<linearGradient id="paint2_linear_168_306" x1="41.981" y1="34.2605" x2="41.981" y2="46.0741" gradientUnits="userSpaceOnUse">
<stop stop-color="#3E6A95"/>
<stop offset="1" stop-color="#0F2D4A"/>
</linearGradient>
<linearGradient id="paint3_linear_168_306" x1="74.9298" y1="53.1978" x2="74.9298" y2="106.997" gradientUnits="userSpaceOnUse">
<stop stop-color="#8A22D7"/>
<stop offset="0.188976" stop-color="#A276FF"/>
<stop offset="0.807292" stop-color="#460184"/>
</linearGradient>
<linearGradient id="paint4_linear_168_306" x1="66.3788" y1="53.1978" x2="66.3788" y2="106.997" gradientUnits="userSpaceOnUse">
<stop stop-color="#438EE5"/>
<stop offset="0.188976" stop-color="#9DDCFF"/>
<stop offset="1" stop-color="#2070CE"/>
</linearGradient>
<linearGradient id="paint5_linear_168_306" x1="57.828" y1="53.1978" x2="57.828" y2="106.997" gradientUnits="userSpaceOnUse">
<stop stop-color="#94CE00"/>
<stop offset="0.188976" stop-color="#D7FF71"/>
<stop offset="1" stop-color="#74A001"/>
</linearGradient>
<linearGradient id="paint6_linear_168_306" x1="49.2773" y1="53.1978" x2="49.2773" y2="106.997" gradientUnits="userSpaceOnUse">
<stop stop-color="#FFD335"/>
<stop offset="0.188976" stop-color="#FFF59D"/>
<stop offset="1" stop-color="#FFBA35"/>
</linearGradient>
<linearGradient id="paint7_linear_168_306" x1="40.7255" y1="53.1978" x2="40.7255" y2="106.997" gradientUnits="userSpaceOnUse">
<stop stop-color="#C73B00"/>
<stop offset="0.188976" stop-color="#FF9366"/>
<stop offset="1" stop-color="#D8470A"/>
</linearGradient>
<linearGradient id="paint8_linear_168_306" x1="32.1749" y1="53.1978" x2="32.1749" y2="106.997" gradientUnits="userSpaceOnUse">
<stop stop-color="#CF2224"/>
<stop offset="0.188976" stop-color="#FF6A6C"/>
<stop offset="1" stop-color="#B90E0F"/>
</linearGradient>
<linearGradient id="paint9_linear_168_306" x1="53.5522" y1="53.1865" x2="53.5522" y2="61.3369" gradientUnits="userSpaceOnUse">
<stop stop-color="#0F2D4A"/>
<stop offset="1" stop-color="#0F2D4A" stop-opacity="0"/>
</linearGradient>
<clipPath id="clip0_168_306">
<rect width="107" height="107" fill="white"/>
</clipPath>
</defs>
</svg>

<svg xmlns="http://www.w3.org/2000/svg" width="107" height="107" fill="none"><g clip-path="url(#a)"><mask id="b" width="107" height="107" x="0" y="0" maskUnits="userSpaceOnUse" style="mask-type:luminance"><path fill="#fff" d="M107 0H0v107h107z"/></mask><g mask="url(#b)"><g filter="url(#c)"><path fill="url(#d)" d="M26.65 76.83a.04.04 0 0 0-.05-.04 16.79 16.79 0 0 1-5.38-33.08c.14-.03.21-.05.26-.1.04-.04.06-.11.08-.26a32.5 32.5 0 0 1 63.97 0c.03.14.04.22.09.26.04.05.11.07.26.1a16.8 16.8 0 0 1-5.39 33.08.04.04 0 0 0-.04.04c0 .02-.02.04-.04.04h-9.9a.2.2 0 0 0-.11.03h-.02a.2.2 0 0 1-.1.04H36.82a.2.2 0 0 1-.1-.03h-.01l-.01-.01a.2.2 0 0 0-.1-.03h-9.92a.04.04 0 0 1-.03-.04"/></g><g filter="url(#e)"><path fill="url(#f)" d="M63.89 46.07a5.9 5.9 0 1 0 0-11.81 5.9 5.9 0 0 0 0 11.81"/></g><g filter="url(#g)"><path fill="url(#h)" d="M41.98 46.07a5.9 5.9 0 1 0 0-11.81 5.9 5.9 0 0 0 0 11.81"/></g><path fill="#fff" d="M44.92 43.31a.84.84 0 1 0 0-1.68.84.84 0 0 0 0 1.68m22.33 0a.84.84 0 1 0 0-1.68.84.84 0 0 0 0 1.68m-26.75-.84a3.16 3.16 0 1 0 0-6.32 3.16 3.16 0 0 0 0 6.32m22.32 0a3.16 3.16 0 1 0 0-6.32 3.16 3.16 0 0 0 0 6.32"/><path fill="#0F2D4A" d="M27.94 53.96c0-.42.34-.76.76-.76h49.7c.41 0 .76.34.76.76v17.18c0 5.07-4.11 9.17-9.18 9.17H37.11a9.17 9.17 0 0 1-9.17-9.17z"/><g filter="url(#i)"><path fill="url(#j)" d="M79.2 53.2h-8.55V107h8.56V53.2Z"/><path fill="url(#k)" d="M62.1 53.2h8.55V107H62.1z"/><path fill="url(#l)" d="M53.55 53.2h8.55V107h-8.55z"/><path fill="url(#m)" d="M45 53.2h8.55V107H45z"/><path fill="url(#n)" d="M36.45 53.2H45V107h-8.55z"/><path fill="url(#o)" d="M36.45 53.2H27.9V107h8.55z"/></g><path fill="url(#p)" d="M79.2 53.19H27.9v8.15h51.3z"/></g></g><defs><linearGradient id="d" x1="47.06" x2="46.43" y1="13.6" y2="76.89" gradientUnits="userSpaceOnUse"><stop stop-color="#E7F2FF"/><stop offset=".17" stop-color="#fff"/><stop offset=".43" stop-color="#E7F2FF"/><stop offset=".89" stop-color="#80B5EF"/><stop offset=".99" stop-color="#9DDCFF"/></linearGradient><linearGradient id="f" x1="63.89" x2="63.89" y1="34.26" y2="46.07" gradientUnits="userSpaceOnUse"><stop stop-color="#3E6A95"/><stop offset="1" stop-color="#0F2D4A"/></linearGradient><linearGradient id="h" x1="41.98" x2="41.98" y1="34.26" y2="46.07" gradientUnits="userSpaceOnUse"><stop stop-color="#3E6A95"/><stop offset="1" stop-color="#0F2D4A"/></linearGradient><linearGradient id="j" x1="74.93" x2="74.93" y1="53.2" y2="107" gradientUnits="userSpaceOnUse"><stop stop-color="#8A22D7"/><stop offset=".19" stop-color="#A276FF"/><stop offset=".81" stop-color="#460184"/></linearGradient><linearGradient id="k" x1="66.38" x2="66.38" y1="53.2" y2="107" gradientUnits="userSpaceOnUse"><stop stop-color="#438EE5"/><stop offset=".19" stop-color="#9DDCFF"/><stop offset="1" stop-color="#2070CE"/></linearGradient><linearGradient id="l" x1="57.83" x2="57.83" y1="53.2" y2="107" gradientUnits="userSpaceOnUse"><stop stop-color="#94CE00"/><stop offset=".19" stop-color="#D7FF71"/><stop offset="1" stop-color="#74A001"/></linearGradient><linearGradient id="m" x1="49.28" x2="49.28" y1="53.2" y2="107" gradientUnits="userSpaceOnUse"><stop stop-color="#FFD335"/><stop offset=".19" stop-color="#FFF59D"/><stop offset="1" stop-color="#FFBA35"/></linearGradient><linearGradient id="n" x1="40.73" x2="40.73" y1="53.2" y2="107" gradientUnits="userSpaceOnUse"><stop stop-color="#C73B00"/><stop offset=".19" stop-color="#FF9366"/><stop offset="1" stop-color="#D8470A"/></linearGradient><linearGradient id="o" x1="32.17" x2="32.17" y1="53.2" y2="107" gradientUnits="userSpaceOnUse"><stop stop-color="#CF2224"/><stop offset=".19" stop-color="#FF6A6C"/><stop offset="1" stop-color="#B90E0F"/></linearGradient><linearGradient id="p" x1="53.55" x2="53.55" y1="53.19" y2="61.34" gradientUnits="userSpaceOnUse"><stop stop-color="#0F2D4A"/><stop offset="1" stop-color="#0F2D4A" stop-opacity="0"/></linearGradient><filter id="c" width="201.23" height="170.74" x="-47.07" y="-4.62" color-interpolation-filters="sRGB" filterUnits="userSpaceOnUse"><feFlood flood-opacity="0" result="BackgroundImageFix"/><feColorMatrix in="SourceAlpha" result="hardAlpha" values="0 0 0 0 0 0 0 0 0 0 0 0 0 0 0 0 0 0 127 0"/><feOffset dy="33.98"/><feGaussianBlur stdDeviation="27.6"/><feComposite in2="hardAlpha" operator="out"/><feColorMatrix values="0 0 0 0 1 0 0 0 0 1 0 0 0 0 1 0 0 0 0.7 0"/><feBlend in2="BackgroundImageFix" result="effect1_dropShadow_168_306"/><feColorMatrix in="SourceAlpha" result="hardAlpha" values="0 0 0 0 0 0 0 0 0 0 0 0 0 0 0 0 0 0 127 0"/><feOffset dx="4.73" dy="8.65"/><feGaussianBlur stdDeviation="5.91"/><feComposite in2="hardAlpha" operator="out"/><feColorMatrix values="0 0 0 0 1 0 0 0 0 1 0 0 0 0 1 0 0 0 1 0"/><feBlend in2="effect1_dropShadow_168_306" result="effect2_dropShadow_168_306"/><feBlend in="SourceGraphic" in2="effect2_dropShadow_168_306" result="shape"/></filter><filter id="e" width="11.81" height="13.65" x="57.98" y="34.26" color-interpolation-filters="sRGB" filterUnits="userSpaceOnUse"><feFlood flood-opacity="0" result="BackgroundImageFix"/><feColorMatrix in="SourceAlpha" result="hardAlpha" values="0 0 0 0 0 0 0 0 0 0 0 0 0 0 0 0 0 0 127 0"/><feOffset dy="1.84"/><feComposite in2="hardAlpha" operator="out"/><feColorMatrix values="0 0 0 0 1 0 0 0 0 1 0 0 0 0 1 0 0 0 1 0"/><feBlend in2="BackgroundImageFix" result="effect1_dropShadow_168_306"/><feBlend in="SourceGraphic" in2="effect1_dropShadow_168_306" result="shape"/></filter><filter id="g" width="11.81" height="13.65" x="36.07" y="34.26" color-interpolation-filters="sRGB" filterUnits="userSpaceOnUse"><feFlood flood-opacity="0" result="BackgroundImageFix"/><feColorMatrix in="SourceAlpha" result="hardAlpha" values="0 0 0 0 0 0 0 0 0 0 0 0 0 0 0 0 0 0 127 0"/><feOffset dy="1.84"/><feComposite in2="hardAlpha" operator="out"/><feColorMatrix values="0 0 0 0 1 0 0 0 0 1 0 0 0 0 1 0 0 0 1 0"/><feBlend in2="BackgroundImageFix" result="effect1_dropShadow_168_306"/><feBlend in="SourceGraphic" in2="effect1_dropShadow_168_306" result="shape"/></filter><filter id="i" width="108.05" height="110.55" x="-.47" y="48.48" color-interpolation-filters="sRGB" filterUnits="userSpaceOnUse"><feFlood flood-opacity="0" result="BackgroundImageFix"/><feColorMatrix in="SourceAlpha" result="hardAlpha" values="0 0 0 0 0 0 0 0 0 0 0 0 0 0 0 0 0 0 127 0"/><feOffset dy="23.66"/><feGaussianBlur stdDeviation="14.19"/><feColorMatrix values="0 0 0 0 0 0 0 0 0 0.122 0 0 0 0 0.254167 0 0 0 0.4 0"/><feBlend in2="BackgroundImageFix" result="effect1_dropShadow_168_306"/><feBlend in="SourceGraphic" in2="effect1_dropShadow_168_306" result="shape"/></filter><clipPath id="a"><path fill="#fff" d="M0 0h107v107H0z"/></clipPath></defs></svg>
